assets/symbols/mulberry/long.svg

<svg height="850.394" viewBox="0 0 850.394 850.394" width="850.394" xmlns="http://www.w3.org/2000/svg"><path d="m81.117 219.952h195.157v103.854h-195.157z" fill="none" stroke="#231f20" stroke-width="20.812"/><path d="m83.648 372.532h666.373v101.98h-666.373z" fill="none"/><g fill="#5668af"><circle cx="83.648" cy="440.519" r="14.164"/><circle cx="83.648" cy="406.524" r="14.164"/><circle cx="112.621" cy="372.532" r="14.164"/><circle cx="141.594" cy="372.532" r="14.164"/><circle cx="170.567" cy="372.532" r="14.164"/><circle cx="199.54" cy="372.532" r="14.164"/><circle cx="228.512" cy="372.532" r="14.164"/><circle cx="257.485" cy="372.532" r="14.164"/><circle cx="286.458" cy="372.532" r="14.164"/><circle cx="315.431" cy="372.532" r="14.164"/><circle cx="344.403" cy="372.532" r="14.164"/><circle cx="373.376" cy="372.532" r="14.164"/><circle cx="402.349" cy="372.532" r="14.164"/><circle cx="431.322" cy="372.532" r="14.164"/><circle cx="460.295" cy="372.532" r="14.164"/><circle cx="489.268" cy="372.532" r="14.164"/><circle cx="518.24" cy="372.532" r="14.164"/><circle cx="547.213" cy="372.532" r="14.164"/><circle cx="576.186" cy="372.532" r="14.164"/><circle cx="605.158" cy="372.532" r="14.164"/><circle cx="634.131" cy="372.532" r="14.164"/><circle cx="663.104" cy="372.532" r="14.164"/><circle cx="692.077" cy="372.532" r="14.164"/><circle cx="721.05" cy="372.532" r="14.164"/><circle cx="750.021" cy="406.525" r="14.164"/><circle cx="750.021" cy="440.519" r="14.164"/><circle cx="721.049" cy="474.512" r="14.164"/><circle cx="692.076" cy="474.512" r="14.164"/><circle cx="663.104" cy="474.512" r="14.164"/><circle cx="634.13" cy="474.512" r="14.164"/><circle cx="605.157" cy="474.512" r="14.164"/><circle cx="576.185" cy="474.512" r="14.164"/><circle cx="547.212" cy="474.512" r="14.164"/><circle cx="518.239" cy="474.512" r="14.164"/><circle cx="489.267" cy="474.512" r="14.164"/><circle cx="460.294" cy="474.512" r="14.164"/><circle cx="431.321" cy="474.512" r="14.164"/><circle cx="402.348" cy="474.512" r="14.164"/><circle cx="373.375" cy="474.512" r="14.164"/><circle cx="344.402" cy="474.512" r="14.164"/><circle cx="315.43" cy="474.512" r="14.164"/><circle cx="286.457" cy="474.512" r="14.164"/><circle cx="257.484" cy="474.512" r="14.164"/><circle cx="228.511" cy="474.512" r="14.164"/><circle cx="199.539" cy="474.512" r="14.164"/><circle cx="170.566" cy="474.512" r="14.164"/><circle cx="141.593" cy="474.512" r="14.164"/><circle cx="112.62" cy="474.512" r="14.164"/><circle cx="83.649" cy="372.532" r="14.164"/><circle cx="750.021" cy="372.532" r="14.164"/><circle cx="750.021" cy="474.512" r="14.164"/><circle cx="83.648" cy="474.512" r="14.164"/></g><path d="m0 0h850.394v850.394h-850.394z" fill="none"/><path d="m721.913 704.259 1.002-185.214m84.018 73.226-84.319-74.643-85.292 73.997m84.591 112.634-650.548-2.965m0 0 .455-68.168m313.537 69.6.456-68.169m172.866 68.958.456-68.168m-83.35 67.791.456-68.169m170.358 68.947.456-68.169m-409.903 66.303.456-68.168m74.903 68.512.456-68.169m-156.196 67.459.455-68.168" fill="none" stroke="#000" stroke-linecap="round" stroke-linejoin="round" stroke-width="13.558"/></svg>

<svg xmlns="http://www.w3.org/2000/svg" width="850.394" height="850.394" viewBox="0 0 850.394 850.394" overflow="visible"><path fill="none" stroke="#231f20" stroke-width="20.812" d="M81.117 219.952h195.157v103.854H81.117z"/><path fill="none" d="M83.648 372.532h666.373v101.98H83.648z"/><circle cx="83.648" cy="440.519" r="14.164" fill="#5668af"/><circle cx="83.648" cy="406.524" r="14.164" fill="#5668af"/><circle cx="112.621" cy="372.532" r="14.164" fill="#5668af"/><circle cx="141.594" cy="372.532" r="14.164" fill="#5668af"/><circle cx="170.567" cy="372.532" r="14.164" fill="#5668af"/><circle cx="199.54" cy="372.532" r="14.164" fill="#5668af"/><circle cx="228.512" cy="372.532" r="14.164" fill="#5668af"/><circle cx="257.485" cy="372.532" r="14.164" fill="#5668af"/><circle cx="286.458" cy="372.532" r="14.164" fill="#5668af"/><circle cx="315.431" cy="372.532" r="14.164" fill="#5668af"/><circle cx="344.403" cy="372.532" r="14.164" fill="#5668af"/><circle cx="373.376" cy="372.532" r="14.164" fill="#5668af"/><circle cx="402.349" cy="372.532" r="14.164" fill="#5668af"/><circle cx="431.322" cy="372.532" r="14.164" fill="#5668af"/><circle cx="460.295" cy="372.532" r="14.164" fill="#5668af"/><circle cx="489.268" cy="372.532" r="14.164" fill="#5668af"/><circle cx="518.24" cy="372.532" r="14.164" fill="#5668af"/><circle cx="547.213" cy="372.532" r="14.164" fill="#5668af"/><circle cx="576.186" cy="372.532" r="14.164" fill="#5668af"/><circle cx="605.158" cy="372.532" r="14.164" fill="#5668af"/><circle cx="634.131" cy="372.532" r="14.164" fill="#5668af"/><circle cx="663.104" cy="372.532" r="14.164" fill="#5668af"/><circle cx="692.077" cy="372.532" r="14.164" fill="#5668af"/><circle cx="721.05" cy="372.532" r="14.164" fill="#5668af"/><circle cx="750.021" cy="406.525" r="14.164" fill="#5668af"/><circle cx="750.021" cy="440.519" r="14.164" fill="#5668af"/><circle cx="721.049" cy="474.512" r="14.164" fill="#5668af"/><circle cx="692.076" cy="474.512" r="14.164" fill="#5668af"/><circle cx="663.104" cy="474.512" r="14.164" fill="#5668af"/><circle cx="634.13" cy="474.512" r="14.164" fill="#5668af"/><circle cx="605.157" cy="474.512" r="14.164" fill="#5668af"/><circle cx="576.185" cy="474.512" r="14.164" fill="#5668af"/><circle cx="547.212" cy="474.512" r="14.164" fill="#5668af"/><circle cx="518.239" cy="474.512" r="14.164" fill="#5668af"/><circle cx="489.267" cy="474.512" r="14.164" fill="#5668af"/><circle cx="460.294" cy="474.512" r="14.164" fill="#5668af"/><circle cx="431.321" cy="474.512" r="14.164" fill="#5668af"/><circle cx="402.348" cy="474.512" r="14.164" fill="#5668af"/><circle cx="373.375" cy="474.512" r="14.164" fill="#5668af"/><circle cx="344.402" cy="474.512" r="14.164" fill="#5668af"/><circle cx="315.43" cy="474.512" r="14.164" fill="#5668af"/><circle cx="286.457" cy="474.512" r="14.164" fill="#5668af"/><circle cx="257.484" cy="474.512" r="14.164" fill="#5668af"/><circle cx="228.511" cy="474.512" r="14.164" fill="#5668af"/><circle cx="199.539" cy="474.512" r="14.164" fill="#5668af"/><circle cx="170.566" cy="474.512" r="14.164" fill="#5668af"/><circle cx="141.593" cy="474.512" r="14.164" fill="#5668af"/><circle cx="112.62" cy="474.512" r="14.164" fill="#5668af"/><circle cx="83.649" cy="372.532" r="14.164" fill="#5668af"/><circle cx="750.021" cy="372.532" r="14.164" fill="#5668af"/><circle cx="750.021" cy="474.512" r="14.164" fill="#5668af"/><circle cx="83.648" cy="474.512" r="14.164" fill="#5668af"/><path fill="none" d="M0 0h850.394v850.394H0z"/><path fill="none" stroke="#000" stroke-width="13.558" stroke-linecap="round" stroke-linejoin="round" d="M721.913 704.259l1.002-185.214M806.933 592.271l-84.319-74.643-85.292 73.997M721.913 704.259l-650.548-2.965M71.365 701.294l.455-68.168M385.357 702.726l.456-68.169M558.679 703.515l.456-68.168M475.785 703.138l.456-68.169M646.599 703.916l.456-68.169M237.152 702.05l.456-68.168M312.511 702.394l.456-68.169M156.771 701.684l.455-68.168"/></svg>
